X:1
T:Kas a Barc'h : BBC 1
E:12
Z:Roger Ngaret (94-95)
R:andro
C:Trad.
S:
A:Bretagne
Q:1/4=84
M:2/4
L:1/16
K:C
GABc dBdB | g2g2 d4 | dedc B2A2 |1 dcBA B2G2 :|2 \
dcBA G4 |: d2cB A2G2 | A2c2 BAG2 | d2cB A2G2 | A2B2 G4 :|
